X:1
L:1/8
M:4/4
K:Amin
 B |]""Am"" AGEG AGEA |""Am"" cdcA""G"" G2 GB |""Am"" A2 cd edcG |""Am"" ABcd""Em"" e2 eg |""Am"" abag egdB | 
""C"" cAGE c2 cd |""C"" edcA GEcE |""Em"" D2 EG""Am"" A4 |]""Am"" ageg agea |""G"" gede g2 gb |""Am"" agea gbed | 
""Am"" cAcd""Em"" e2 eg |""Am"" abag egdB |""C"" cAGE c2 cd |""C"" edcA GEcE |""Em"" D2 EG""Am"" A4 |]
